X:16
T:Pavane - Mille ducas
R:
C:Tielman Susato
H:
N:8
B:
O:Flandres
A:
Z:<anamnese@laposte.net> -- http://anamnese.fr.st
M:C|
L:1/4
Q:1/4=110
K:C
ddee | ffge | eefe | dd^c2 | ddee | ffge | eefe | 
eefe/d/| ^c/B/^c d2  |e>e f/g/a/g/ | (f/e/)d c>d | eef2 | ede2 | ccd=B | 
cABc| d2f2 | ed2 ^c| d2=cc| d=BcA| Bcd2 | f2 ed-|d ^c d2 :|]
